src/next/cmd/ko/sc_textdirectiontoptobottom.svg

<svg height="128" viewBox="0 0 128 128" width="128" xmlns="http://www.w3.org/2000/svg" xmlns:xlink="http://www.w3.org/1999/xlink"><linearGradient id="a" gradientTransform="matrix(.00049044 .99999988 -.99999988 .00049044 52.004836 1.957334)" gradientUnits="userSpaceOnUse" x1="113.15723" x2="39.268185" xlink:href="#b" y1="25.786163" y2="25.786163"/><linearGradient id="b"><stop offset="0" stop-color="#0968ef"/><stop offset="1" stop-color="#aecffc"/></linearGradient><linearGradient id="c" gradientTransform="matrix(.00049044 .99999988 -.99999988 .00049044 92.004836 1.957334)" gradientUnits="userSpaceOnUse" x1="113.15723" x2="-21.971066" xlink:href="#b" y1="25.786163" y2="27.994064"/><linearGradient id="d" gradientTransform="matrix(.00049044 .99999988 -.99999988 .00049044 131.951042 1.957334)" gradientUnits="userSpaceOnUse" x1="113.15723" x2="-16.176079" xlink:href="#b" y1="25.786163" y2="23.943111"/>



/&amp;amp;gt;<image height="128" preserveAspectRatio="none" width="128" x="-128" xlink:href="data:image/png;base64,iVBORw0KGgoAAAANSUhEUgAAABAAAAAQCAYAAAAf8/9hAAAABHNCSVQICAgIfAhkiAAAAAlwSFlz
AAABsQAAAbEBYZgoDgAAABl0RVh0U29mdHdhcmUAd3d3Lmlua3NjYXBlLm9yZ5vuPBoAAAG3SURB
VDiNpZNBSFRhEMd/8/mM3UQk6KCgkri9RQI9iRRo4hZ0EEmQQAgPQe6hburSoZM3e+s9vKvgBgol
BFlgUlEgHgzE3YtFIB08SIesdb/p0D73vV0VwTkNw8xv5v/n+0RVOU8YP+lIU9OaXKkTkTURuQ7g
eqRcj1RwwE2TdNMkKwAA3+ZGEkAD8ODElUpEIXoswP7eGwaeAndEJFIbpVoFCfaI4hhLVQVgd/lR
rdp8N7AIvAXuPuzkGhoGqCBBqOMne1/mB8VUbWjhsAX4DIy0XuLCQBuNIQllFx0B9M+vYbUaBZ4X
Sx0/d3c2E7ErbpkHIYABEJFmtYVY7PGHhKr2qmovMPtqbqbBMSW9x0nwPbhvnMiLi81dhUDv/Nrr
TD1lYSzG2JJ3voSXde39+2W9H0efTOfy+UMTUFrhgQFQ1c3L9xZqDvI0HZ2qqn9bBtZXd5zsWSQg
EJdq4sHmzFe+L23xI3SXIkEjRVWJTXHDGDLFDUO5cT5d9bgpsPJ/hlu5CVbdaXqwvCmuvp0d4734
n8n1WEbRbIp+nx73eAewPUHfSbXSO4BnYXvAFpiE02ty3u/8D801mCegUMc7AAAAAElFTkSuQmCC"/><g fill-rule="evenodd"><g transform="translate(4)"><path d="m24.063696 121.97105 19.988228-24.00981-3.976796-3.97288-12.021335 7.80464-.0538-29.797-7.999993.004.0538 29.797-11.827726-7.79302-4.174157 3.97689z" fill="url(#a)"/><path d="m64.063696 121.97105 19.988228-24.00981-3.976796-3.97288-12.021335 7.80464-.0538-93.797-7.999993.004.0538 93.797-11.827726-7.79302-4.174157 3.97689z" fill="url(#c)"/><path d="m104.0099 121.97105 19.98823-24.00981-3.9768-3.97288-12.02133 7.80464v-93.793l-7.99999.004v93.793l-11.827762-7.79302-4.174157 3.97689z" fill="url(#d)"/></g><g fill="#0e0e0e" transform="matrix(8 0 0 8 0 -904)"><path d="m6 113v10h1v-4h2v-1h-2v-5z"/><path d="m0 113.9999v1h4c.08196 3.41252-.9797977 5.92312-4 6v1c3.4874101.0209 5.1078637-3.15581 5-7.12589v-.87422z"/></g></g></svg>

<?xml version="1.0" encoding="UTF-8" standalone="no"?>
<svg
   xmlns:dc="http://purl.org/dc/elements/1.1/"
   xmlns:cc="http://creativecommons.org/ns#"
   xmlns:rdf="http://www.w3.org/1999/02/22-rdf-syntax-ns#"
   xmlns:svg="http://www.w3.org/2000/svg"
   xmlns="http://www.w3.org/2000/svg"
   xmlns:xlink="http://www.w3.org/1999/xlink"
   xmlns:sodipodi="http://sodipodi.sourceforge.net/DTD/sodipodi-0.dtd"
   xmlns:inkscape="http://www.inkscape.org/namespaces/inkscape"
   height="16"
   viewBox="0 0 16 16"
   width="16"
   version="1.1"
   id="svg28"
   sodipodi:docname="sc_textdirectiontoptobottom.svg"
   inkscape:version="0.92.4 (unknown)"><metadata
   id="metadata34">
  <rdf:RDF>
    <cc:Work
       rdf:about="">
      <dc:format>image/svg+xml</dc:format>
      <dc:type
         rdf:resource="http://purl.org/dc/dcmitype/StillImage" />
      <dc:title></dc:title>
    </cc:Work>
  </rdf:RDF>
</metadata>
<defs
   id="defs32" />
<sodipodi:namedview
   pagecolor="#ffffff"
   bordercolor="#666666"
   borderopacity="1"
   objecttolerance="10"
   gridtolerance="10"
   guidetolerance="10"
   inkscape:pageopacity="0"
   inkscape:pageshadow="2"
   inkscape:window-width="1366"
   inkscape:window-height="706"
   id="namedview30"
   showgrid="true"
   inkscape:zoom="5.2149125"
   inkscape:cx="9.7419865"
   inkscape:cy="31.205713"
   inkscape:window-x="0"
   inkscape:window-y="0"
   inkscape:window-maximized="1"
   inkscape:current-layer="svg28">
  <inkscape:grid
     type="xygrid"
     id="grid841" />
</sodipodi:namedview>
<linearGradient
   id="a"
   gradientTransform="rotate(89.9719,25.023271,26.993841)"
   gradientUnits="userSpaceOnUse"
   x1="113.15723"
   x2="39.268185"
   xlink:href="#b"
   y1="25.786163"
   y2="25.786163" />
<linearGradient
   id="b">
  <stop
     offset="0"
     stop-color="#0968ef"
     id="stop3" />
  <stop
     offset="1"
     stop-color="#aecffc"
     id="stop5" />
</linearGradient>
<linearGradient
   id="c"
   gradientTransform="rotate(89.9719,45.023271,47.003652)"
   gradientUnits="userSpaceOnUse"
   x1="113.15723"
   x2="-21.971066"
   xlink:href="#b"
   y1="25.786163"
   y2="27.994064" />
<linearGradient
   id="d"
   gradientTransform="rotate(89.9719,64.996374,66.986553)"
   gradientUnits="userSpaceOnUse"
   x1="113.15723"
   x2="-16.176079"
   xlink:href="#b"
   y1="25.786163"
   y2="23.943111" />




/&amp;amp;gt;<g
   id="g26"
   transform="scale(0.125)"
   style="fill-rule:evenodd">
  <g
     transform="translate(4)"
     id="g18">
    <path
       d="M 24.063696,121.97105 44.051924,97.96124 40.075128,93.98836 28.053793,101.793 27.999993,71.996 20,72 20.0538,101.797 8.226074,94.00398 4.051917,97.98087 Z"
       id="path12"
       style="fill:url(#a)"
       inkscape:connector-curvature="0" />
    <path
       d="M 64.063696,121.97105 84.051924,97.96124 80.075128,93.98836 68.053793,101.793 67.999993,7.996 60,8 l 0.0538,93.797 -11.827726,-7.79302 -4.174157,3.97689 z"
       id="path14"
       style="fill:url(#c)"
       inkscape:connector-curvature="0" />
    <path
       d="M 104.0099,121.97105 123.99813,97.96124 120.02133,93.98836 108,101.793 V 8 l -7.99999,0.004 v 93.793 l -11.827762,-7.79302 -4.174157,3.97689 z"
       id="path16"
       style="fill:url(#d)"
       inkscape:connector-curvature="0" />
  </g>
  <g
     transform="matrix(8,0,0,8,0,-904)"
     id="g24"
     style="fill:#0e0e0e">
    <path
       d="m 6,113 v 10 h 1 v -4 h 2 v -1 H 7 v -5 z"
       id="path20"
       inkscape:connector-curvature="0" />
    <path
       d="m 0,113.9999 v 1 h 4 c 0.08196,3.41252 -0.9797977,5.92312 -4,6 v 1 c 3.4874101,0.0209 5.1078637,-3.15581 5,-7.12589 v -0.87422 z"
       id="path22"
       inkscape:connector-curvature="0" />
  </g>
</g>
</svg>
